icons/data-transfer-two-color.svg

<?xml version="1.0" encoding="UTF-8"?><svg id="uuid-106a2a82-83b2-44be-b568-e9ddec3cb413" xmlns="http://www.w3.org/2000/svg" viewBox="0 0 50 50"><path d="M10.87,20.83h-2.08c-.28,0-.5-.22-.5-.5v-4.41c0-1.21,.98-2.19,2.19-2.19h31.96c1.21,0,2.19,.98,2.19,2.19v3.91h2.36v-5.8c0-1.55-1.26-2.81-2.81-2.81H8.74c-1.55,0-2.81,1.26-2.81,2.81v6.3c0,.28-.22,.5-.5,.5h-2l3.72,6.45,3.72-6.45Z" fill="#ffcd00"/><path d="M42.05,31.7h2.08c.28,0,.5,.22,.5,.5v4.41c0,1.21-.98,2.19-2.19,2.19H10.48c-1.21,0-2.19-.98-2.19-2.19v-3.91h-2.36v5.8c0,1.55,1.26,2.81,2.81,2.81H44.19c1.55,0,2.81-1.26,2.81-2.81v-6.3c0-.28,.22-.5,.5-.5h2l-3.72-6.45-3.72,6.45Z" fill="#ffcd00"/><g><path d="M5.6,27.28c.18,0,.34-.1,.43-.25l4.6-7.96c.09-.15,.09-.35,0-.5s-.25-.25-.43-.25h-2.45v-3.92c0-.66,.54-1.19,1.19-1.19H40.97c.66,0,1.19,.54,1.19,1.19v4.42c0,.28,.22,.5,.5,.5h3.37c.28,0,.5-.22,.5-.5v-6.32c0-2.1-1.71-3.82-3.82-3.82H7.19c-2.1,0-3.82,1.71-3.82,3.82v5.82H1c-.18,0-.34,.1-.43,.25s-.09,.35,0,.5l4.6,7.96c.09,.15,.25,.25,.43,.25Zm-1.73-7.96c.28,0,.5-.22,.5-.5v-6.32c0-1.55,1.26-2.82,2.82-2.82H42.71c1.55,0,2.82,1.26,2.82,2.82v5.82h-2.37v-3.92c0-1.21-.98-2.19-2.19-2.19H8.94c-1.21,0-2.19,.98-2.19,2.19v4.42c0,.28,.22,.5,.5,.5h2.09l-3.73,6.46-3.73-6.46H3.87Z"/><path d="M49.34,30.47l-4.6-7.96c-.18-.31-.69-.31-.87,0l-4.6,7.96c-.09,.15-.09,.35,0,.5s.25,.25,.43,.25h2.45v3.92c0,.66-.54,1.19-1.19,1.19H8.94c-.66,0-1.19-.54-1.19-1.19v-4.42c0-.28-.22-.5-.5-.5H3.87c-.28,0-.5,.22-.5,.5v6.32c0,2.1,1.71,3.82,3.82,3.82H42.71c2.1,0,3.82-1.71,3.82-3.82v-5.82h2.37c.18,0,.34-.1,.43-.25s.09-.35,0-.5Zm-3.31-.25c-.28,0-.5,.22-.5,.5v6.32c0,1.55-1.26,2.82-2.82,2.82H7.19c-1.55,0-2.82-1.26-2.82-2.82v-5.82h2.37v3.92c0,1.21,.98,2.19,2.19,2.19H40.97c1.21,0,2.19-.98,2.19-2.19v-4.42c0-.28-.22-.5-.5-.5h-2.09l3.73-6.46,3.73,6.46h-2.01Z"/></g></svg>

<svg id="bc542674-fd1b-49e7-8fe2-96b17505af43" data-name="ICONS" xmlns="http://www.w3.org/2000/svg" viewBox="0 0 50 50"><path d="M10.87,20.83H8.79a.51.51,0,0,1-.5-.5V15.92a2.2,2.2,0,0,1,2.19-2.19h32a2.19,2.19,0,0,1,2.19,2.19v3.91H47V14a2.82,2.82,0,0,0-2.81-2.81H8.74A2.82,2.82,0,0,0,5.93,14v6.31a.51.51,0,0,1-.5.5h-2l3.72,6.45Z" fill="#fdd600"/><path d="M42.05,31.7h2.08a.5.5,0,0,1,.5.5v4.41a2.19,2.19,0,0,1-2.19,2.19h-32a2.2,2.2,0,0,1-2.19-2.19V32.7H5.93v5.81a2.81,2.81,0,0,0,2.81,2.81H44.19A2.81,2.81,0,0,0,47,38.51V32.2a.5.5,0,0,1,.5-.5h2l-3.73-6.44Z" fill="#fdd600"/><path d="M5.6,27.28A.5.5,0,0,0,6,27l4.6-8a.5.5,0,0,0,0-.5.5.5,0,0,0-.43-.25H7.75V14.4a1.19,1.19,0,0,1,1.19-1.2H41a1.2,1.2,0,0,1,1.19,1.2v4.41a.5.5,0,0,0,.5.5H46a.5.5,0,0,0,.5-.5V12.5a3.82,3.82,0,0,0-3.82-3.82H7.19A3.83,3.83,0,0,0,3.37,12.5v5.81H1a.5.5,0,0,0-.43.25.5.5,0,0,0,0,.5l4.6,8A.5.5,0,0,0,5.6,27.28Zm-1.73-8a.5.5,0,0,0,.5-.5V12.5A2.83,2.83,0,0,1,7.19,9.68H42.71a2.82,2.82,0,0,1,2.82,2.82v5.81H43.16V14.4A2.2,2.2,0,0,0,41,12.2h-32a2.2,2.2,0,0,0-2.19,2.2v4.41a.5.5,0,0,0,.5.5H9.33L5.6,25.78,1.87,19.31Z" fill="#231f20"/><path d="M49.34,30.47l-4.6-8a.52.52,0,0,0-.87,0l-4.6,8a.5.5,0,0,0,0,.5.52.52,0,0,0,.44.25h2.45v3.92A1.2,1.2,0,0,1,41,36.33h-32a1.19,1.19,0,0,1-1.19-1.19V30.72a.5.5,0,0,0-.5-.5H3.87a.5.5,0,0,0-.5.5V37a3.83,3.83,0,0,0,3.82,3.82H42.71A3.82,3.82,0,0,0,46.53,37V31.22H48.9a.52.52,0,0,0,.44-.25A.5.5,0,0,0,49.34,30.47ZM46,30.22a.5.5,0,0,0-.5.5V37a2.82,2.82,0,0,1-2.82,2.82H7.19A2.82,2.82,0,0,1,4.37,37V31.22H6.75v3.92a2.2,2.2,0,0,0,2.19,2.19H41a2.2,2.2,0,0,0,2.19-2.19V30.72a.5.5,0,0,0-.5-.5H40.57l3.74-6.47L48,30.22Z" fill="#231f20"/></svg>
